X:1
T:Title
%%score { ( 1 4 ) | ( 2 3 ) }
L:1/8
M:4/4
K:D
V:1 treble nm="Grand Piano"
V:4 treble 
V:2 bass 
V:3 bass 
V:1
 z4 z2[Q:1/4=106] A2 | F3 =F ^F2 A2 | G3 F G2 [GB]2 | [FA]3 [=F^G] [^FA]2 [Fd]2 | c6 c2 | %5
 c3 [CE] [CE]2 [DF]2 | G3 F G2 d2 | c3 G E2 B2 | [FA-]4 A2 z2 | F3 =F ^F2 A2 | G3 F G2 [GB]2 | %11
 [FA]3 [=F^G] [^FA]2 [Fd]2 | c6 cc | [^Ge]3 [GB] [GB]2 G-[Gd] | z4 z2 .[FA]2 | c3 d [Ac]2 [^GB]2 | %16
[M:2/4] [EA]4 | [CF]3 [CE] |[M:4/4] D3 C D2 [CE]2 | F A2 [FA] [FA]3 [FA] | d3 d c2 B2 | %21
 [FA]6 [FA]2 | B3 c d2 B2 | [FA]3 [DF] [FA]2 [=FB]2 | [Ec]2 [Ae]2 [^Ge]2 [Ge]2 | A4 [CF]3 [CE] | %26
 D3 C D2 [CE]2 | [DF] [FA]3- [FA]2 [FA]2 | [GB]3 [GB] [^Ge]2 [EGd]2 | A4 z4 | %30
 [DFd]2 [DF]2 [DG]2 [DFA]2 |[M:9/8] z [GB]2- [GB]3- [GB] z z | %32
 A3 [Ad]e-[=Ge]- [Ge]2 [Fd][Q:1/4=104][Q:1/4=103][Q:1/4=101][Q:1/4=100][Q:1/4=98][Q:1/4=97][Q:1/4=95][Q:1/4=94][Q:1/4=92][Q:1/4=90][Q:1/4=89][Q:1/4=87][Q:1/4=86][Q:1/4=84][Q:1/4=83][Q:1/4=81] | %33
[M:3/4] [Fd]6 |] %34
V:2
 z4 z2 [D,F,D]2 | [D,A,D]3 [D,^G,D] [D,A,D]2 [^D,A,=C]2 | [E,C]4 z4 | [D,A,]3 [D,D] [D,D]2 [D,D]2 | %4
 [A,EG]6 [A,EG]2 | [A,EG]3[K:bass] [A,,A,] [A,,A,]2 [A,,A,]2 | %6
 [E,A,C]3 [^D,A,=C] [E,A,^C]2[K:treble] [A,F]2 | [A,EG]3 [A,CE] [A,C]2 [A,EG]2 | %8
 D,2 ^D,2 [E,C]2 A,2 | [D,A,D]3 [D,^G,D] [D,A,D]2 [^D,A,=C]2 | %10
 [E,A,C]3 [^D,A,=C] [E,A,^C]2 [A,,A,]2 | [D,A,]3 [D,A,] [D,D]2 [D,D]2 | [A,EG]6 [A,G][A,G] | %13
 [E,B,]3 [E,E] [E,E]2 z B, | A3 E[K:bass] A,2 z[K:treble] =F | %15
 [A,E]3 [B,^G][K:bass] [E,E]2 [E,D]2 |[M:2/4] [A,C]4 | [A,,A,]3 [A,,G,] | %18
[M:4/4] [D,F,A,]3 [E,G,A,] [D,F,A,]2 [A,,A,]2 | [A,D] [DF]2 [D,D] [D,D]3 [D,D] | %20
 [G,B,G]3 [G,B,G] [G,CG]2 [G,DG]2 | [D,D]6 [D,D]2 | [G,DG]3 [G,CG] [G,B,G]2 [G,DG]2 | %23
 [D,D]3 [D,A,] [D,D]2 [D,D]2 | [E,A,]2 [E,C]2 [E,B,]2 [E,D]2 | [A,C]4 [A,,A,]3 [A,,A,] | %26
 [D,F,A,]3 [E,G,A,] [D,F,A,]2 [A,,A,]2 | [D,A,] [D,D]3- [D,D]2 [D,D]2 | [G,D]3 [G,B,] [E,B,]2 E,2 | %29
 z4[K:treble] G2 A,>[K:bass]A, | D,2 =C2 B,2 A,2 | %31
[M:9/8] G, G,2 G, G,2- G,[K:treble][^G,D=F]>[G,DF] | %32
 [A,DF]3[K:bass] [F,D][E,B,][A,C]- [A,C]2 [D,A,] |[M:3/4] [D,A,]6 |] %34
V:3
 x8 | x8 | A,3- [^D,A,=C] [E,A,C]2 [A,,A,]2 | x8 | x8 | x3[K:bass] x5 | x6[K:treble] x2 | x8 | x8 | %9
 x8 | x8 | x8 | x8 | z4 z2 E,2 | [A,C]4[K:bass] z2 D,2[K:treble] | E,4[K:bass] z4 |[M:2/4] x4 | %17
 x4 |[M:4/4] x8 | D,4 z4 | x8 | x8 | x8 | x8 | x8 | x8 | x8 | x8 | x8 | A,6[K:treble] z2[K:bass] | %30
 x8 |[M:9/8] x7[K:treble] x2 | x3[K:bass] x6 |[M:3/4] x6 |] %34
V:4
 x8 | x8 | x8 | x8 | x8 | x8 | x8 | x8 | D2 =C2 G2 AA | x8 | x8 | x8 | x8 | z4 z2 .[Cc]2 | %14
 e3 A [CEA]2 A,-[A,B] | x8 |[M:2/4] x4 | x4 |[M:4/4] x8 | x8 | x8 | x8 | x8 | x8 | x8 | x8 | x8 | %27
 x8 | x8 | [Ec]6 [EGB]>[EGc] | x8 |[M:9/8] [DAc] D2 D D2- DB>B | z3 z .^G2 z3 |[M:3/4] x6 |] %34

